panel/22/indicator-messages-new.svg

<?xml version="1.0" encoding="UTF-8" standalone="no"?>
<!-- Created with Inkscape (http://www.inkscape.org/) -->

<svg
   xmlns:dc="http://purl.org/dc/elements/1.1/"
   xmlns:cc="http://creativecommons.org/ns#"
   xmlns:rdf="http://www.w3.org/1999/02/22-rdf-syntax-ns#"
   xmlns:svg="http://www.w3.org/2000/svg"
   xmlns="http://www.w3.org/2000/svg"
   xmlns:inkscape="http://www.inkscape.org/namespaces/inkscape"
   version="1.0"
   width="22"
   height="22"
   id="svg3197">
  <metadata
     id="metadata12">
    <rdf:RDF>
      <cc:Work
         rdf:about="">
        <dc:format>image/svg+xml</dc:format>
        <dc:type
           rdf:resource="http://purl.org/dc/dcmitype/StillImage" />
        <dc:title />
      </cc:Work>
    </rdf:RDF>
  </metadata>
  <defs
     id="defs3199" />
  <path
     d="m 11.59375,4.125 c -0.254246,0.1186674 -0.453284,0.3340269 -0.53125,0.625 -0.0028,0.010493 0.0025,0.020752 0,0.03125 -1.7850828,-0.014433 -3.416274,1.1713845 -3.90625,3 C 7.15074,7.801815 7.130181,7.823177 7.125,7.84375 6.6060178,9.7806627 5.5962228,13.648701 3.875,13.1875 3.7603308,13.156775 3.6295964,13.241219 3.59375,13.375 l -0.125,0.46875 c -0.035846,0.133781 0.01033,0.281775 0.125,0.3125 l 11.1875,2.96875 c 0.114669,0.03073 0.245404,-0.02247 0.28125,-0.15625 l 0.125,-0.5 C 15.22335,16.334969 15.145922,16.218225 15.03125,16.1875 13.303293,15.724495 14.3561,11.842814 14.875,9.90625 14.8808,9.88584 14.8695,9.864315 14.875,9.84375 14.996147,9.3916249 15.030362,8.9348294 15,8.5 13.060512,8.5 11.5,6.9394882 11.5,5 c 0,-0.298852 0.0235,-0.5979948 0.09375,-0.875 z M 9,16.625 C 9.0826689,17.396456 9.9501122,18 11,18 c 0.570613,0 1.073126,-0.181267 1.4375,-0.46875 L 9,16.625 z"
     inkscape:connector-curvature="0"
     id="rect3022"
     style="color:#000000;fill:#ffffff;fill-opacity:1;fill-rule:nonzero;stroke:none;stroke-width:1;marker:none;visibility:visible;display:inline;overflow:visible;enable-background:accumulate" />
  <path
     d="m 17,5 a 2,2 0 1 1 -4,0 2,2 0 1 1 4,0 z"
     id="path3009"
     style="color:#000000;fill:#009dff;fill-opacity:1;fill-rule:nonzero;stroke:none;stroke-width:1;marker:none;visibility:visible;display:inline;overflow:visible;enable-background:accumulate" />
</svg>

<?xml version="1.0" encoding="UTF-8" standalone="no"?>
<!-- Created with Inkscape (http://www.inkscape.org/) -->

<svg
   xmlns:dc="http://purl.org/dc/elements/1.1/"
   xmlns:cc="http://creativecommons.org/ns#"
   xmlns:rdf="http://www.w3.org/1999/02/22-rdf-syntax-ns#"
   xmlns:svg="http://www.w3.org/2000/svg"
   xmlns="http://www.w3.org/2000/svg"
   xmlns:sodipodi="http://sodipodi.sourceforge.net/DTD/sodipodi-0.dtd"
   xmlns:inkscape="http://www.inkscape.org/namespaces/inkscape"
   version="1.0"
   width="22"
   height="22"
   id="svg3197"
   inkscape:version="0.48.4 r9939"
   sodipodi:docname="indicator-messages-new.svg">
  <sodipodi:namedview
     pagecolor="#565656"
     bordercolor="#666666"
     borderopacity="1"
     objecttolerance="10"
     gridtolerance="10"
     guidetolerance="10"
     inkscape:pageopacity="0"
     inkscape:pageshadow="2"
     inkscape:window-width="1280"
     inkscape:window-height="747"
     id="namedview12"
     showgrid="true"
     inkscape:zoom="25.136364"
     inkscape:cx="5.4701623"
     inkscape:cy="11"
     inkscape:window-x="0"
     inkscape:window-y="28"
     inkscape:window-maximized="1"
     inkscape:current-layer="svg3197"
     borderlayer="true"
     showguides="true"
     inkscape:guide-bbox="true"
     showborder="true">
    <inkscape:grid
       type="xygrid"
       id="grid2998"
       empspacing="5"
       visible="true"
       enabled="true"
       snapvisiblegridlinesonly="true" />
    <sodipodi:guide
       orientation="0,1"
       position="1.4321881,17"
       id="guide3018" />
    <sodipodi:guide
       orientation="0,1"
       position="3,6"
       id="guide3020" />
  </sodipodi:namedview>
  <metadata
     id="metadata12">
    <rdf:RDF>
      <cc:Work
         rdf:about="">
        <dc:format>image/svg+xml</dc:format>
        <dc:type
           rdf:resource="http://purl.org/dc/dcmitype/StillImage" />
        <dc:title />
      </cc:Work>
    </rdf:RDF>
  </metadata>
  <defs
     id="defs3199" />
  <path
     style="color:#000000;fill:#ffffff;fill-opacity:1;fill-rule:nonzero;stroke:none;stroke-width:1;marker:none;visibility:visible;display:inline;overflow:visible;enable-background:accumulate"
     d="M 11.59375 4.125 C 11.339504 4.2436674 11.140466 4.4590269 11.0625 4.75 C 11.0597 4.760493 11.065 4.770752 11.0625 4.78125 C 9.2774172 4.766817 7.646226 5.9526345 7.15625 7.78125 C 7.15074 7.801815 7.130181 7.823177 7.125 7.84375 C 6.6060178 9.7806627 5.5962228 13.648701 3.875 13.1875 C 3.7603308 13.156775 3.6295964 13.241219 3.59375 13.375 L 3.46875 13.84375 C 3.432904 13.977531 3.47908 14.125525 3.59375 14.15625 L 14.78125 17.125 C 14.895919 17.15573 15.026654 17.10253 15.0625 16.96875 L 15.1875 16.46875 C 15.22335 16.334969 15.145922 16.218225 15.03125 16.1875 C 13.303293 15.724495 14.3561 11.842814 14.875 9.90625 C 14.8808 9.88584 14.8695 9.864315 14.875 9.84375 C 14.996147 9.3916249 15.030362 8.9348294 15 8.5 C 13.060512 8.5 11.5 6.9394882 11.5 5 C 11.5 4.701148 11.523498 4.4020052 11.59375 4.125 z M 9 16.625 C 9.0826689 17.396456 9.9501122 18 11 18 C 11.570613 18 12.073126 17.818733 12.4375 17.53125 L 9 16.625 z "
     id="rect3022" />
  <path
     sodipodi:type="arc"
     style="opacity:1;color:#000000;fill:#009dff;fill-opacity:1;fill-rule:nonzero;stroke:none;stroke-width:1;marker:none;visibility:visible;display:inline;overflow:visible;enable-background:accumulate"
     id="path3009"
     sodipodi:cx="15"
     sodipodi:cy="5"
     sodipodi:rx="2"
     sodipodi:ry="2"
     d="m 17,5 a 2,2 0 1 1 -4,0 2,2 0 1 1 4,0 z" />
</svg>
